X:1
T:Miserere
T:Miserere
T:Trascrizione e Realizzazione: B.Ruiu 1955
C:Trascrizione e Realizzazione: B.Ruiu 1955
%%score 1 2 3 4
L:1/8
Q:1/4=60
M:2/4
K:C
V:1 treble-8 nm="Tenore" snm="T."
V:2 treble-8 nm="Tenore" snm="T."
V:3 bass nm="Baritono" snm="Bar."
V:4 bass nm="Basso" snm="B."
V:1
!<(! A>B B/B/B/B/-!<)! |!>(! B2 (3c/B/A/B/A/!>)! |!<(! ^c4!<)! |!>(! ^c4!>)! | d2 e/d/=c/B/ | %5
w: Mi- se- re- re me- i-||De-|us|se- * * cum- *|
 A2 (3B/A/G/A/G/ |!<(! B3 c/4B/4A/4B/4!<)! | %7
w: dum- * * * * *|ma- * * * *|
"^Amplius lava me ab iniquitate mea: et a peccato meo munda me.\nTibi soli peccavi, et malum coram te feci: ut justificeris in sermonibus tuis, et vincas cum judicaris.\nMiserere mei, Deus."!>(! c3 B | %8
w: |
 B4!>)! |!<(! z G3/2G/4G/4A/B/- | B2 (3c/B/A/B/A/!<)! |!>(! ^c3 d/4c/4B/4c/4 | d3 ^c | ^c4!>)! |] %14
w: gnam|mi- se- ri- cor- diam-||tu- * * * *||am.|
V:2
 z4 | z4 | A4 | A4 | z4 | z4 |!<(! G4!<)! |!>(! G4 | G4!>)! | z4 | z4 |!>(! A4 | A4 | A4!>)! |] %14
w: ||De-|us|||ma-||gnam|||tu-||am|
V:3
 z4 | z4 | E,4 | E,4 | z4 | z4 |!<(! D,3 E,/4D,/4C,/4D,/4!<)! |!>(! E,3 D, | D,4!>)! | z4 | z4 | %11
w: ||De-|us|||ma- * * * *||gnam|||
!>(! E,3 ^F,/4E,/4D,/4E,/4 | ^F,3 E, | E,4!>)! |] %14
w: tu- * * * *||am|
V:4
 z4 | z4 | A,,4 | A,,4 | z4 | z4 |!<(! G,,4!<)! |!>(! G,,4 | G,,4!>)! | z4 | z4 |!>(! A,,4 | A,,4 | %13
w: ||De-|us|||ma-||gnam|||tu-||
 A,,4!>)! |] %14
w: am|

